icons/linear-ele-nature-weather-sun-sunrise-2.svg

<svg xmlns="http://www.w3.org/2000/svg" width="32px" height="32px" viewBox="0 0 32 32" version="1.1">
    <title>linear-ele-nature-weather-sun-sunrise-2</title>
    <g id="linear-ele-nature-weather-sun-sunrise-2" stroke-width="1" fill-rule="evenodd">
        <path d="M30,23 C30.5522847,23 31,23.4477153 31,24 C31,24.5522847 30.5522847,25 30,25 L2,25 C1.44771525,25 1,24.5522847 1,24 C1,23.4477153 1.44771525,23 2,23 L30,23 Z M23,27 C23.5522847,27 24,27.4477153 24,28 C24,28.5522847 23.5522847,29 23,29 L9,29 C8.44771525,29 8,28.5522847 8,28 C8,27.4477153 8.44771525,27 9,27 L23,27 Z M16,10 C22.0751322,10 27,14.9248678 27,21 L25,21 C25,16.0294373 20.9705627,12 16,12 C11.0294373,12 7,16.0294373 7,21 L5,21 C5,14.9248678 9.92486775,10 16,10 Z M28.7071068,8.29289322 C29.0976311,8.68341751 29.0976311,9.31658249 28.7071068,9.70710678 L26.7071068,11.7071068 C26.3165825,12.0976311 25.6834175,12.0976311 25.2928932,11.7071068 C24.9023689,11.3165825 24.9023689,10.6834175 25.2928932,10.2928932 L27.2928932,8.29289322 C27.6834175,7.90236893 28.3165825,7.90236893 28.7071068,8.29289322 Z M4.70710678,8.29289322 L6.70710678,10.2928932 C7.09763107,10.6834175 7.09763107,11.3165825 6.70710678,11.7071068 C6.31658249,12.0976311 5.68341751,12.0976311 5.29289322,11.7071068 L3.29289322,9.70710678 C2.90236893,9.31658249 2.90236893,8.68341751 3.29289322,8.29289322 C3.68341751,7.90236893 4.31658249,7.90236893 4.70710678,8.29289322 Z M16,3 C16.5522847,3 17,3.44771525 17,4 L17,7 C17,7.55228475 16.5522847,8 16,8 C15.4477153,8 15,7.55228475 15,7 L15,4 C15,3.44771525 15.4477153,3 16,3 Z" id="&#24418;&#29366;" fill-rule="nonzero" />
    </g>
</svg>

<svg xmlns="http://www.w3.org/2000/svg" viewBox="0 0 32 32"><path fill="currentColor" d="M30 23a1 1 0 0 1 0 2H2a1 1 0 0 1 0-2zm-7 4a1 1 0 0 1 0 2H9a1 1 0 0 1 0-2zm-7-17c6.075 0 11 4.925 11 11h-2a9 9 0 0 0-18 0H5c0-6.075 4.925-11 11-11m12.707-1.707a1 1 0 0 1 0 1.414l-2 2a1 1 0 0 1-1.414-1.414l2-2a1 1 0 0 1 1.414 0m-24 0 2 2a1 1 0 0 1-1.414 1.414l-2-2a1 1 0 0 1 1.414-1.414M16 3a1 1 0 0 1 1 1v3a1 1 0 0 1-2 0V4a1 1 0 0 1 1-1"/></svg>
